X:22901
T:The Drummer
R:Reel
B:Tuneworks Tunebook 2 (https://www.tuneworks.co.uk/)
G:Tuneworks
Z:Jon Warbrick <jon.warbrick@googlemail.com>
M:4/4
L:1/8
K:Am
|: "Am" ABcA"Em" E2 E^F | "G" GABc dBGB | "Am" ABcA"Em" E2 Ec | "Am" ed"G"cB"Am" A2 A2 :|
"C" c2 ce"G" d2 de | "C" c2 ce"G" dBGB | "C" c2 ce"G" d2 df | "Am" ed"G"cB"Am" A3 B |
"C" c2 ce"G" d2 de | "C" c2 ce"G" dBGB | "C" c2 ce"G" d^cdg | "Am" ed"G"cB"Am" A2 A2 |]
